src/icons/facebook.svg

<svg width="28" height="28" viewBox="0 0 28 28" fill="none" xmlns="http://www.w3.org/2000/svg">
<rect width="28" height="28" rx="4" fill="white"/>
<path d="M21.778 14.0004C21.778 9.7071 18.2935 6.22266 14.0002 6.22266C9.70686 6.22266 6.22241 9.7071 6.22241 14.0004C6.22241 17.7649 8.89797 20.8993 12.4446 21.6227V16.3338H10.8891V14.0004H12.4446V12.056C12.4446 10.5549 13.6657 9.33377 15.1669 9.33377H17.1113V11.6671H15.5557C15.128 11.6671 14.778 12.0171 14.778 12.4449V14.0004H17.1113V16.3338H14.778V21.7393C18.7057 21.3504 21.778 18.0371 21.778 14.0004Z" fill="#491060" fill-opacity="0.75"/>
</svg>

<svg xmlns="http://www.w3.org/2000/svg" width="28" height="28" fill="none"><rect width="28" height="28" rx="4" fill="#fff"/><path d="M21.778 14c0-4.293-3.484-7.778-7.778-7.778S6.222 9.707 6.222 14c0 3.765 2.676 6.899 6.222 7.622v-5.289h-1.556V14h1.556v-1.944c0-1.501 1.221-2.722 2.722-2.722h1.944v2.333h-1.556a.78.78 0 0 0-.778.778V14h2.333v2.333h-2.333v5.406a7.78 7.78 0 0 0 7-7.739z" fill="#491060" fill-opacity=".75"/></svg>
